X: 16258
T: Greig's Pipes
R: reel
M: 4/4
K: Gmajor
B3A BAGA|B2GB AGEG|B2BA BAGB|cABG AGEG|
B3A BAGA|B2GB AGEG|Bdd2 eBdB|AcBG AGEG|
|:DGG2 DGBG|DGBG AGEG|DGGF GABc|dBAc BGG2:|
|:d2Bd efge|d2BG AGEG|d2Bd efge|agbg age2:|

